X: 11
T: Going To The Well For Water
Z: UPipes & harp
S: https://thesession.org/tunes/455#setting50092
R: slide
M: 12/8
L: 1/8
K: Dmaj
|:{c}A2 f A2 f A2 f fed | B2 g B2 {f}g B2 {f}g gfe|
c2 c BcB Ace a2 f|1 ~g2 e cde d3 dcB:|2 gfe cde d3 d2 e||
|:~f3 fed ~e3 edc|d3 dcB c3 cBA|
GBB GBB FAA FAA|1 ~E3 e2 d cBc d2 e:|2 EFE e2 d cBc dcB||

%-------------------- TUNE SEPARATOR --------------------%

